X:1
T:Title
%%score { ( 1 3 ) | 2 }
L:1/8
M:3/4
K:A
V:1 treble nm="Grand Piano"
V:3 treble 
V:2 bass 
V:1
 z2 z2[Q:1/4=90] [CA]>[DB] | [Ec]3 [Ec] [Fd]>[^D=c] | [Ec]4 B>^A | B3 c e>d |[M:2/4] [Ec]4 | %5
[M:1/4] [CE]>[DF] |[M:3/4] [CE]3 c cc | c4 [Fc]>[FB] | [EB]3 [EG] [^DG]>[DF] | E4 z2 | %10
 .E.B .B.B .c.B | A4 E2 | .E.B .B.B .c.B |[M:2/4] [CA]4 |[M:1/4] [CA]>[DA] | %15
[M:3/4] [EA]3 [EA] [FA]>[FB] | [Ec]4 B>c | %17
 d3 G FE3/4-E/8E/8[Q:1/4=87][Q:1/4=84][Q:1/4=82][Q:1/4=79][Q:1/4=76][Q:1/4=73][Q:1/4=70] | %18
[M:2/4] [CA]4 |] %19
V:2
 z2 z2 [A,,A,]>[A,,A,] | [A,,A,]3 [A,,=G,] [A,,F,]>[A,,F,] | [A,,E,]4 [E,G,E]>[E,=G,E] | %3
 [E,G,E]3 [E,A,E] [E,CE]>[E,B,E] |[M:2/4] [A,,A,]4 |[M:1/4] [A,,A,]>[A,,A,] | %6
[M:3/4] [A,,A,]3[K:treble] [A,E] [G,B,^E][G,B,E] | [F,A,F]4 [^D,A,]>[D,A,] | %8
 [E,G,]3 [E,B,] [B,,B,]>[B,,A,] | [E,G,]4 z2 | .[E,G,D].[E,G,D] .[E,G,D].[E,G,D] .[E,G,D].[E,G,D] | %11
 [A,,A,]6 | .[E,G,D].[E,G,D] .[E,G,D].[E,G,D] .[E,G,D].[E,G,D] |[M:2/4] [A,,A,]4 | %14
[M:1/4] [A,,A,]>[B,,A,] |[M:3/4] [C,A,]3 [C,A,] [D,A,]>[D,A,] | [A,,A,]4 [E,G,E]>[E,A,E] | %17
 [E,B,E]3 [E,B,D] [E,A,D][E,G,D] |[M:2/4] [A,,A,]4 |] %19
V:3
 x6 | x6 | x6 | x6 |[M:2/4] x4 |[M:1/4] x2 |[M:3/4] x6 | x6 | x6 | z2 D2 z2 | x6 | C6 | x6 | %13
[M:2/4] x4 |[M:1/4] x2 |[M:3/4] x6 | x6 | x6 |[M:2/4] x4 |] %19

